X: 1974
T: Welcome To Charlie
B: australian traditional tunes wiki
M:6/8
L:1/8
R: Jig
Q: 3/8=100
K:G
V:1 
|:"G"G2B Bcd|"C"efg "G"d2B|"C"e2g "G"dBG|"C"gfe "G"dBG|G2B Bcd|
"C"efg gfe|1"G"ded dBG|"D7"A3B2A:|2"G"ded "D7"cBA|"G"G3B2c||
|:"G"d2g gag|d2g gag|"D7"A2d ded|A2d ded|"C"c2e ege|
"D7"d2f "C"gfe|1"G"dcBG2B|"D7"A3B2c:|2"G"dcB "D7"A2F|"G"G6||
% abcbook-tune_id 6342d5be1e34b6f99154936b


% abcbook-boost 0
% abcbook-tablature 
% abcbook-transpose 
% abcbook-lastupdated 1665324491722
% abcbook-soundfonts 
% abcbook-repeats 1
% NFF Book 2010

